; generated by Slic3r 1.34.0-prusa3d on 2017-05-29 at 10:26:53

; external perimeters extrusion width = 0.40mm
; perimeters extrusion width = 0.67mm
; infill extrusion width = 0.67mm
; solid infill extrusion width = 0.67mm
; top infill extrusion width = 0.67mm
; support material extrusion width = 0.40mm

G92 E0
M114
; M109 S160 ; wait for extruder temp to be reached
; M190 S90 ; set and wait for bed temp to be reached
G28 ; home all
; G29 ; auto z
; G1 Z15 F5000 ; lift nozzle
; M109 S225 ; wait for extruder temp to be reached
; M900 K75 ; LIN_ADVANCE K PLA
; M900 K35 ; LIN_ADVANCE K ABS
G21 ; set units to millimeters
G90 ; use absolute coordinates
M82 ; use absolute distances for extrusion
M114


G92 E0
G1 E-1.50000 F4800.00000
G92 E0
G1 Z0.400 F12000.000
G1 X91.548 Y92.407 F12000.000
G1 E1.50000 F4800.00000
G1 F1680.3
G1 X92.391 Y91.598 E1.63876
G1 X95.996 Y89.020 E2.16508
G1 X97.286 Y88.473 E2.33154
G1 X98.654 Y88.289 E2.49539
G1 X99.617 Y88.380 E2.61033
G1 X108.767 Y90.222 E3.71880
G1 X109.731 Y90.549 E3.83970
G1 X110.616 Y91.062 E3.96127
G1 X111.474 Y91.769 E4.09327
G1 X112.139 Y92.494 E4.21007
G1 X113.610 Y94.611 E4.51619
G1 X114.011 Y95.348 E4.61589
G1 X114.308 Y96.219 E4.72523
G1 X114.571 Y97.635 E4.89622
G1 X114.587 Y98.465 E4.99486
G1 X114.445 Y99.702 E5.14273
G1 X112.518 Y108.057 E6.16106
G1 X112.174 Y108.841 E6.26274
G1 X111.782 Y109.480 E6.35182
G1 X111.282 Y110.076 E6.44422
G1 X110.702 Y110.586 E6.53595
G1 X109.378 Y111.393 E6.72005
G1 X108.475 Y111.798 E6.83754
G1 X102.543 Y113.696 E7.57732
G1 X100.388 Y114.254 E7.84164
G1 X96.272 Y114.717 E8.33364
G1 X94.658 Y114.636 E8.52553
G1 X91.998 Y113.919 E8.85275
G1 X89.387 Y112.747 E9.19261
G1 X88.092 Y111.918 E9.37526
G1 X87.294 Y111.174 E9.50476
G1 X86.531 Y110.005 E9.67059
G1 X86.014 Y108.467 E9.86334
G1 X85.520 Y105.894 E10.17447
G1 X85.474 Y104.900 E10.29261
G1 X85.534 Y104.104 E10.38741
G1 X85.895 Y102.756 E10.55317
G1 X87.925 Y97.509 E11.22135
G1 X88.306 Y96.882 E11.30844
G1 X91.513 Y92.455 E11.95767
G1 F9600
G1 X92.391 Y91.598 E11.37463
G1 F9600
G1 X93.833 Y90.567 E10.53267
G1 E10.45767 F4800.00000
G92 E0
G1 X92.076 Y92.890 F12000.000
G1 E1.50000 F4800.00000
G1 F1680.3
G1 X92.821 Y92.168 E1.62321
G1 X96.323 Y89.656 E2.13507
G1 X97.459 Y89.166 E2.28195
G1 X98.655 Y89.003 E2.42537
G1 X99.487 Y89.083 E2.52463
G1 X108.585 Y90.913 E3.62678
G1 X109.403 Y91.184 E3.72912
G1 X110.153 Y91.609 E3.83145
G1 X110.964 Y92.270 E3.95576
G1 X111.571 Y92.927 E4.06201
G1 X113.005 Y94.991 E4.36055
G1 X113.353 Y95.624 E4.44628
G1 X113.617 Y96.397 E4.54327
G1 X113.861 Y97.718 E4.70285
G1 X113.873 Y98.448 E4.78954
G1 X113.736 Y99.618 E4.92944
G1 X111.855 Y107.787 E5.92500
G1 X111.215 Y109.046 E6.09272
G1 X110.780 Y109.568 E6.17353
G1 X110.269 Y110.018 E6.25433
G1 X109.034 Y110.767 E6.42590
G1 X108.228 Y111.128 E6.53074
G1 X102.331 Y113.014 E7.26604
G1 X100.212 Y113.562 E7.52596
G1 X96.229 Y114.004 E8.00199
G1 X94.747 Y113.927 E8.17816
G1 X92.230 Y113.243 E8.48792
G1 X89.706 Y112.108 E8.81666
G1 X88.533 Y111.357 E8.98208
G1 X87.844 Y110.718 E9.09363
G1 X87.170 Y109.685 E9.24010
G1 X86.703 Y108.279 E9.41613
G1 X86.230 Y105.823 E9.71313
G1 X86.244 Y104.188 E9.90736
G1 X86.571 Y102.988 E10.05508
G1 X88.565 Y97.827 E10.71220
G1 X92.041 Y92.938 E11.42453
G1 F9600
G1 X92.821 Y92.168 E10.90372
G1 F9600
G1 X94.368 Y91.059 E9.99953
G1 E9.92453 F4800.00000
G92 E0
G1 X97.630 Y89.860 F12000.000
G1 E1.50000 F4800.00000
G1 F1680.3
G1 X98.654 Y89.717 E1.62287
G1 X99.355 Y89.784 E1.70644
G1 X108.407 Y91.605 E2.80309
G1 X109.077 Y91.821 E2.88665
G1 X109.698 Y92.162 E2.97078
G1 X110.462 Y92.778 E3.08730
G1 X111.005 Y93.364 E3.18223
G1 X112.693 Y95.899 E3.54392
G1 X112.924 Y96.572 E3.62841
G1 X113.152 Y97.802 E3.77704
G1 X113.159 Y98.420 E3.85042
G1 X113.027 Y99.526 E3.98270
G1 X111.191 Y107.521 E4.95697
G1 X110.646 Y108.613 E5.10192
G1 X109.839 Y109.448 E5.23989
G1 X108.694 Y110.139 E5.39873
G1 X107.980 Y110.458 E5.49155
G1 X102.124 Y112.330 E6.22168
G1 X100.036 Y112.870 E6.47778
G1 X96.179 Y113.291 E6.93862
G1 X94.837 Y113.218 E7.09822
G1 X92.462 Y112.568 E7.39066
G1 X90.022 Y111.467 E7.70861
G1 X88.972 Y110.793 E7.85680
G1 X88.394 Y110.263 E7.94992
G1 X87.809 Y109.365 E8.07727
G1 X87.393 Y108.093 E8.23618
G1 X86.941 Y105.753 E8.51918
G1 X86.953 Y104.277 E8.69454
G1 X87.243 Y103.229 E8.82370
G1 X89.203 Y98.148 E9.47045
G1 X92.611 Y93.364 E10.16804
G1 X93.257 Y92.734 E10.27522
G1 X96.653 Y90.290 E10.77217
G1 X97.575 Y89.884 E10.89174
G1 F9600
G1 X98.654 Y89.717 E10.37283
G1 F9600
G1 X99.355 Y89.784 E10.03862
G1 F9600
G1 X100.535 Y90.022 E9.46674
G1 E9.39174 F4800.00000
G92 E0
G1 X91.351 Y104.197 F12000.000
G1 E1.50000 F4800.00000
G1 F1680.3
G1 X91.471 Y104.513 E1.54010
G1 X91.637 Y105.078 E1.61004
G1 X91.808 Y105.376 E1.65089
G1 X92.574 Y106.403 E1.80299
G1 X93.402 Y106.364 E1.90150
G1 X92.799 Y106.713 E1.98420
G1 X94.045 Y107.156 E2.14122
G1 X92.542 Y108.059 E2.34939
G1 X91.769 Y107.740 E2.44872
G1 X91.509 Y107.551 E2.48685
G1 X91.498 Y107.522 E2.49056
G1 X91.399 Y107.150 E2.53629
G1 X91.358 Y106.795 E2.57879
G1 X91.491 Y106.044 E2.66932
G1 X91.350 Y105.878 E2.69517
G1 X91.029 Y105.230 E2.78115
G1 X91.020 Y104.927 E2.81705
G1 X91.177 Y104.477 E2.87366
G1 X91.319 Y104.248 E2.90567
G1 F9600
G1 X91.471 Y104.513 E2.76075
G1 F9600
G1 X91.637 Y105.078 E2.48103
G1 F9600
G1 X91.808 Y105.376 E2.31764
G1 F9600
G1 X92.574 Y106.403 E1.70934
G1 F9600
G1 X93.055 Y106.380 E1.48067
G1 E1.40567 F4800.00000
G92 E0
G1 X93.108 Y99.738 F12000.000
G1 E1.50000 F4800.00000
G1 F1680.3
G1 X93.398 Y99.375 E1.55518
G1 X93.596 Y99.303 E1.58019
G1 X93.153 Y99.698 E1.65070
G1 F9600
G1 X93.398 Y99.375 E1.45804
G1 F9600
G1 X93.596 Y99.303 E1.35801
G1 F9600
G1 X93.153 Y99.698 E1.07602
G1 E0.15070 F4800.00000
G92 E0
G1 X97.287 Y96.027 F12000.000
G1 E1.50000 F4800.00000
G1 F1680.3
G1 X97.944 Y96.196 E1.58061
G1 X98.102 Y96.345 E1.60642
G1 X98.036 Y96.500 E1.62646
G1 X97.442 Y97.466 E1.76110
G1 X97.164 Y98.163 E1.85027
G1 X97.085 Y98.888 E1.93689
G1 X97.287 Y99.381 E2.00011
G1 X97.891 Y100.085 E2.11024
G1 X98.667 Y100.735 E2.23056
G1 X99.249 Y101.506 E2.34529
G1 X99.829 Y102.709 E2.50387
G1 X99.953 Y103.043 E2.54613
G1 X100.147 Y103.843 E2.64389
G1 X100.324 Y104.348 E2.70753
G1 X100.356 Y104.515 E2.72771
G1 X100.543 Y104.811 E2.76923
G1 X100.757 Y104.989 E2.80236
G1 X101.381 Y105.260 E2.88312
G1 X102.267 Y105.193 E2.98864
G1 X104.266 Y104.751 E3.23185
G1 X104.943 Y104.656 E3.31297
G1 X106.426 Y104.374 E3.49225
G1 X106.496 Y104.379 E3.50061
G1 X106.606 Y104.505 E3.52043
G1 X106.832 Y104.864 E3.57079
G1 X106.807 Y105.074 E3.59599
G1 X106.927 Y105.377 E3.63470
G1 X107.180 Y105.779 E3.69111
G1 X107.232 Y105.894 E3.70612
G1 X107.293 Y106.143 E3.73659
G1 X107.241 Y106.156 E3.74291
G1 X106.719 Y106.528 E3.81907
G1 X106.366 Y106.659 E3.86386
G1 X105.536 Y106.166 E3.97847
G1 X105.042 Y106.631 E4.05902
G1 X105.211 Y106.957 E4.10260
G1 X104.453 Y107.227 E4.19815
G1 X103.472 Y107.524 E4.31987
G1 X103.030 Y107.614 E4.37344
G1 X102.394 Y107.780 E4.45147
G1 X101.873 Y108.023 E4.51977
G1 X100.930 Y108.392 E4.63999
G1 X100.494 Y108.487 E4.69299
G1 X100.052 Y108.529 E4.74573
G1 X99.334 Y108.784 E4.83630
G1 X99.112 Y108.827 E4.86305
G1 X99.023 Y108.873 E4.87493
G1 X98.496 Y108.904 E4.93767
G1 X97.879 Y108.872 E5.01108
G1 X97.330 Y108.926 E5.07659
G1 X96.714 Y109.047 E5.15115
G1 X95.857 Y109.180 E5.25418
G1 X95.967 Y107.488 E5.45557
G1 X95.301 Y107.261 E5.53902
G1 X96.027 Y106.945 E5.63302
G1 X96.021 Y107.795 E5.73400
G1 X97.067 Y108.112 E5.86390
G1 X97.070 Y108.067 E5.86920
G1 X97.626 Y108.042 E5.93538
G1 X98.250 Y107.659 E6.02224
G1 X97.440 Y106.180 E6.22255
G1 X97.131 Y105.307 E6.33250
G1 X96.995 Y105.232 E6.35095
G1 X96.950 Y105.060 E6.37209
G1 X96.084 Y104.102 E6.52538
G1 X95.983 Y104.020 E6.54089
G1 X95.554 Y103.499 E6.62094
G1 X95.282 Y103.616 E6.65613
G1 X95.069 Y102.914 E6.74316
G1 X93.740 Y99.251 E7.20600
G1 X93.855 Y99.209 E7.22058
G1 X94.120 Y98.933 E7.26599
G1 X94.379 Y98.974 E7.29706
G1 X95.135 Y98.961 E7.38684
G1 X95.210 Y97.595 E7.54933
G1 X95.581 Y96.445 E7.69281
G1 X95.814 Y95.971 E7.75553
G1 X96.482 Y95.563 E7.84853
G1 X96.797 Y95.232 E7.90279
G1 X96.986 Y95.152 E7.92717
G1 X97.303 Y95.735 E8.00596
G1 X97.290 Y95.967 E8.03354
G1 F9600
G1 X97.944 Y96.196 E7.70442
G1 F9600
G1 X98.102 Y96.345 E7.60120
G1 F9600
G1 X98.036 Y96.500 E7.52104
G1 F9600
G1 X97.442 Y97.466 E6.98258
G1 F9600
G1 X97.164 Y98.163 E6.62595
G1 F9600
G1 X97.160 Y98.200 E6.60855
G1 E6.53354 F4800.00000
G92 E0
G1 X97.394 Y97.135 F12000.000
G1 E1.50000 F4800.00000
G1 F1578.09
G1 X96.461 Y96.203 E1.66672
G1 X96.226 Y96.347 E1.70162
G1 X96.079 Y96.646 E1.74377
G1 X96.018 Y96.835 E1.76888
G1 X96.804 Y97.621 E1.90937
G1 X96.639 Y98.033 E1.96547
G1 X96.590 Y98.483 E2.02273
G1 X95.500 Y97.393 E2.21768
G1 F9600
G1 X96.590 Y98.483 E1.48540
G1 F9600
G1 X96.639 Y98.033 E1.27031
G1 F9600
G1 X96.804 Y97.621 E1.05962
G1 F9600
G1 X96.406 Y97.223 E0.79268
G1 E0.71768 F4800.00000
G92 E0
G1 X95.099 Y102.369 F12000.000
G1 E1.50000 F4800.00000
G1 F1578.09
G1 X100.638 Y107.907 E2.49047
G1 X100.775 Y107.877 E2.50820
G1 X101.428 Y107.622 E2.59689
G1 X95.023 Y101.218 E3.74226
G1 X94.411 Y99.530 E3.96930
G1 X102.430 Y107.549 E5.40347
G1 F9600
G1 X100.309 Y105.428 E3.97847
G1 E3.90347 F4800.00000
G92 E0
G1 X101.728 Y105.771 F12000.000
G1 E1.50000 F4800.00000
G1 F1578.09
G1 X103.025 Y107.068 E1.73194
G1 X103.341 Y107.004 E1.77271
G1 X103.875 Y106.842 E1.84323
G1 X102.682 Y105.650 E2.05646
G1 X103.563 Y105.455 E2.17051
G1 X104.507 Y106.399 E2.33933
G1 X105.061 Y105.878 E2.43553
G1 X104.449 Y105.266 E2.54488
G1 X105.377 Y105.119 E2.66370
G1 X106.601 Y106.343 E2.88265
G1 F9600
G1 X105.377 Y105.119 E2.06022
G1 F9600
G1 X104.449 Y105.266 E1.61393
G1 F9600
G1 X104.682 Y105.499 E1.45765
G1 E1.38265 F4800.00000
G92 E0
G1 X99.982 Y108.327 F12000.000
G1 E1.50000 F4800.00000
G1 F1578.09
G1 X97.575 Y105.920 E1.93052
G1 F9600
G1 X99.696 Y108.041 E0.50552
G1 E0.43052 F4800.00000
G92 E0
G1 X99.530 Y103.574 F12000.000
G1 E1.50000 F4800.00000
G1 F1578.09
G1 X95.448 Y99.491 E2.23016
G1 X95.642 Y99.488 E2.25476
G1 X95.688 Y98.656 E2.36009
G1 X99.452 Y102.420 E3.03326
G1 F9600
G1 X97.331 Y100.299 E1.60826
G1 E1.53326 F4800.00000
G92 E0
G1 X98.432 Y108.256 F12000.000
G1 E1.50000 F4800.00000
G1 F2100
G1 X97.771 Y108.454 E1.51188
G1 F2100
G1 X97.406 Y108.485 E1.51512
G1 F9600
G1 X97.771 Y108.454 E1.34091
G1 E0.01512 F4800.00000
G92 E0
G1 X92.159 Y107.515 F12000.000
G1 E1.50000 F4800.00000
G1 F2100
G1 X91.837 Y106.809 E1.52461
G1 X92.020 Y106.258 E1.54306
G1 F9600
G1 X91.837 Y106.809 E1.26704
G1 F9600
G1 X92.159 Y107.515 E0.89889
G1 E0.04306 F4800.00000
G92 E0
G1 X108.262 Y97.953 F12000.000
G1 E1.50000 F4800.00000
G1 F1680.3
G1 X108.365 Y99.128 E1.64012
G1 X108.265 Y99.157 E1.65247
G1 X107.942 Y99.187 E1.69102
G1 X107.621 Y99.152 E1.72927
G1 X107.383 Y99.159 E1.75760
G1 X107.196 Y99.032 E1.78443
G1 X106.893 Y98.867 E1.82539
G1 X106.309 Y98.080 E1.94175
G1 X106.089 Y97.886 E1.97668
G1 X105.707 Y97.428 E2.04748
G1 X105.430 Y96.772 E2.13203
G1 X105.679 Y96.505 E2.17544
G1 X105.898 Y96.212 E2.21888
G1 X106.303 Y95.854 E2.28307
G1 X106.688 Y95.640 E2.33537
G1 X107.172 Y95.594 E2.39315
G1 X107.454 Y95.625 E2.42686
G1 X107.675 Y95.806 E2.46072
G1 X107.788 Y95.930 E2.48073
G1 X107.997 Y96.268 E2.52793
G1 X108.133 Y96.785 E2.59136
G1 X108.324 Y97.070 E2.63213
G1 X108.797 Y97.414 E2.70162
G1 X108.938 Y97.606 E2.72992
G1 X109.049 Y98.169 E2.79804
G1 X108.986 Y98.700 E2.86156
G1 X108.304 Y97.996 E2.97799
G1 F9600
G1 X108.365 Y99.128 E2.43941
G1 F9600
G1 X108.265 Y99.157 E2.39001
G1 F9600
G1 X107.942 Y99.187 E2.23582
G1 F9600
G1 X107.621 Y99.152 E2.08284
G1 F9600
G1 X107.383 Y99.159 E1.96953
G1 F9600
G1 X107.196 Y99.032 E1.86222
G1 F9600
G1 X106.893 Y98.867 E1.69841
G1 F9600
G1 X106.711 Y98.621 E1.55299
G1 E1.47799 F4800.00000
G92 E0
G1 X107.935 Y96.875 F12000.000
G1 E1.50000 F4800.00000
G1 F1528.07
G1 X107.197 Y96.137 E1.63631
G1 X106.850 Y96.163 E1.68178
G1 X106.614 Y96.294 E1.71704
G1 X106.418 Y96.468 E1.75128
G1 X107.708 Y97.758 E1.98949
G1 X107.784 Y98.631 E2.10401
G1 X107.541 Y98.619 E2.13571
G1 X107.339 Y98.500 E2.16635
G1 X105.699 Y96.860 E2.46928
; M104 S220 ; set temperature
; M140 S85 ; set bed temperature
G1 F9600
G1 X107.339 Y98.500 E1.36748
G1 F9600
G1 X107.541 Y98.619 E1.25602
G1 F9600
G1 X107.784 Y98.631 E1.14072
G1 F9600
G1 X107.766 Y98.429 E1.04428
G1 E0.96928 F4800.00000
G92 E0
G1 Z0.600 F12000.000
G1 X97.685 Y108.893 F12000.000
G1 E1.50000 F4800.00000
G1 F1839.16
G1 X97.136 Y109.083 E1.51727
G1 X96.921 Y109.126 E1.52376
G1 X96.648 Y109.092 E1.53193
G1 X96.135 Y109.359 E1.54911
G1 X96.027 Y109.384 E1.55240
G1 X95.447 Y109.423 E1.56967
G1 X95.241 Y109.407 E1.57582

G1 F3600
G1 X94.904 Y109.338 E1.59285
G1 X94.030 Y109.047 E1.63858

G1 F1839.16
G1 X93.115 Y108.644 E1.66826

G1 F3600
G1 X92.888 Y108.551 E1.68045

G1 F1839.16
G1 X91.793 Y108.104 E1.71557
G1 X91.213 Y107.677 E1.73696
G1 X91.088 Y107.418 E1.74551
G1 X90.999 Y107.032 E1.75726
G1 X90.915 Y106.124 E1.78434
G1 X90.716 Y105.872 E1.79386
G1 X90.570 Y105.576 E1.80366
G1 X90.519 Y105.133 E1.81690
G1 X90.620 Y104.782 E1.82774
G1 X90.852 Y104.232 E1.84545
G1 X91.328 Y103.562 E1.86985
G1 X91.484 Y103.373 E1.87714

G1 F3600
G1 X91.587 Y103.177 E1.88815
G1 X91.708 Y103.018 E1.89804
G1 X91.767 Y102.698 E1.91422
G1 X91.820 Y102.666 E1.91732
G1 X91.869 Y102.311 E1.93507
G1 X92.063 Y101.516 E1.97569
G1 X92.134 Y100.818 E2.01053

G1 F1839.16
G1 X92.145 Y100.709 E2.01379
G1 X92.299 Y100.291 E2.02700
G1 X92.416 Y100.087 E2.03399
G1 X92.558 Y99.911 E2.04071
G1 X92.843 Y99.696 E2.05130
G1 X93.260 Y99.200 E2.07054
G1 X93.608 Y98.942 E2.08342
G1 X93.971 Y98.308 E2.10509
G1 X93.988 Y98.212 E2.10800

G1 F3600
G1 X94.128 Y97.426 E2.14763
G1 X94.261 Y97.090 E2.16557
G1 X94.433 Y96.842 E2.18055
G1 X94.994 Y96.312 E2.21884

G1 F1839.16
G1 X95.503 Y95.786 E2.24059
G1 X95.641 Y95.606 E2.24733
G1 X95.935 Y95.432 E2.25746
G1 X97.453 Y94.313 E2.31344

G1 F3600
G1 X97.930 Y93.985 E2.34221
G1 X98.095 Y93.836 E2.35321

G1 F1839.16
G1 X98.381 Y93.578 E2.36464
G1 X98.784 Y93.275 E2.37961

G1 F3600
G1 X99.709 Y92.833 E2.43050
G1 X99.918 Y92.758 E2.44156
G1 X100.880 Y92.180 E2.49727
G1 X101.373 Y92.047 E2.52258
G1 X101.634 Y92.015 E2.53566
G1 X101.864 Y92.019 E2.54708
G1 X102.088 Y92.069 E2.55846
G1 X102.445 Y92.340 E2.58071
G1 X102.752 Y92.922 E2.61338
G1 X102.804 Y93.274 E2.63103
G1 X102.804 Y93.604 E2.64742
G1 X102.795 Y93.689 E2.65165
G1 X102.701 Y93.874 E2.66195
G1 X102.168 Y94.147 E2.69170
G1 X101.386 Y94.690 E2.73893
G1 X101.203 Y94.750 E2.74850
G1 X100.376 Y95.332 E2.79868
G1 X99.896 Y95.586 E2.82566
G1 X99.494 Y95.759 E2.84735
G1 X99.276 Y95.912 E2.86060
G1 X98.797 Y96.392 E2.89425
G1 X98.643 Y96.604 E2.90725

G1 F1839.16
G1 X98.404 Y96.934 E2.91935
G1 X98.014 Y97.365 E2.93662
G1 X97.879 Y97.473 E2.94175
G1 X97.835 Y97.718 E2.94914
G1 X97.595 Y98.153 E2.96389
G1 X97.652 Y98.795 E2.98303
G1 X97.859 Y99.214 E2.99690
G1 X98.202 Y99.578 E3.01176
G1 X98.619 Y99.921 E3.02780
G1 X99.073 Y100.345 E3.04622
G1 X99.441 Y100.779 E3.06314
G1 X99.700 Y101.195 E3.07767
G1 X100.119 Y102.001 E3.10464
G1 X100.390 Y102.725 E3.12761
G1 X100.455 Y103.000 E3.13599
G1 X100.644 Y104.049 E3.16764
G1 X100.749 Y104.381 E3.17799
G1 X100.960 Y104.775 E3.19126
G1 X101.141 Y104.882 E3.19748
G1 X101.268 Y105.002 E3.20267
G1 X101.861 Y105.041 E3.22030
G1 X102.249 Y104.994 E3.23191
G1 X104.079 Y104.594 E3.28753
G1 X104.813 Y104.506 E3.30950
G1 X105.635 Y104.305 E3.33463
G1 X106.410 Y104.204 E3.35782
G1 X106.608 Y104.235 E3.36376
G1 X106.839 Y104.470 E3.37355
G1 X107.019 Y104.705 E3.38235
G1 X106.965 Y104.787 E3.38527
G1 X107.198 Y105.374 E3.40403
G1 X107.433 Y105.878 E3.42052
G1 X107.468 Y106.141 E3.42842
G1 X107.458 Y106.177 E3.42954
G1 X107.433 Y106.177 E3.43028
G1 X107.184 Y106.431 E3.44085
G1 X106.670 Y106.780 E3.45929
G1 X105.898 Y106.981 E3.48297
G1 X104.296 Y107.492 E3.53288
G1 X103.082 Y107.826 E3.57027
G1 X101.075 Y108.487 E3.63303
G1 X99.664 Y108.833 E3.67617
G1 X99.526 Y108.882 E3.68050
G1 X98.983 Y108.987 E3.69692
G1 X98.869 Y109.046 E3.70074
G1 X98.747 Y109.042 E3.70436
