; generated by Slic3r 1.34.0-prusa3d on 2017-06-07 at 10:54:47

; external perimeters extrusion width = 0.40mm
; perimeters extrusion width = 0.67mm
; infill extrusion width = 0.67mm
; solid infill extrusion width = 0.67mm
; top infill extrusion width = 0.67mm

;G92 E0
;M109 S160 ; wait for extruder temp to be reached
;M190 S90 ; set and wait for bed temp to be reached
;G28 ; home all
;G29 ; auto z
G1 Z15 F5000 ; lift nozzle
;M109 S225 ; wait for extruder temp to be reached
; M900 K75 ; LIN_ADVANCE K PLA
;M900 K35 ; LIN_ADVANCE K ABS
G21 ; set units to millimeters
G90 ; use absolute coordinates
M82 ; use absolute distances for extrusion
G92 E0
G1 Z0.400 F12000.000
G1 E-1.50000 F4800.00000
G92 E0
G1 X87.698 Y87.789 F12000.000
G1 E1.50000 F4800.00000
G1 F1680.3
G1 X88.918 Y86.671 E1.69650
G1 X90.238 Y85.674 E1.89301
G1 X91.643 Y84.810 E2.08885
G1 X93.139 Y84.078 E2.28669
G1 X94.672 Y83.500 E2.48119
G1 X96.280 Y83.065 E2.67903
G1 X97.910 Y82.786 E2.87544
G1 X99.673 Y82.664 E3.08532
G1 X101.198 Y82.700 E3.26653
G1 X102.841 Y82.893 E3.46303
G1 X104.437 Y83.236 E3.65688
G1 X106.051 Y83.749 E3.85804
G1 X107.532 Y84.380 E4.04922
G1 X109.006 Y85.181 E4.24839
G1 X110.372 Y86.103 E4.44422
G1 X111.779 Y87.279 E4.66197
G1 X112.827 Y88.333 E4.83851
G1 X113.979 Y89.748 E5.05518
G1 X115.000 Y91.324 E5.27817
G1 X115.572 Y92.377 E5.42054
G1 X116.125 Y93.642 E5.58446
G1 X116.710 Y95.385 E5.80286
G1 X117.069 Y96.977 E5.99671
G1 X117.281 Y98.647 E6.19653
G1 X117.329 Y100.110 E6.37042
G1 X117.223 Y101.935 E6.58750
G1 X116.959 Y103.563 E6.78335
G1 X116.533 Y105.190 E6.98317
G1 X115.974 Y106.712 E7.17568
G1 X115.250 Y108.224 E7.37485
G1 X114.398 Y109.636 E7.57069
G1 X113.415 Y110.960 E7.76653
G1 X112.327 Y112.169 E7.95971
G1 X111.092 Y113.303 E8.15888
G1 X109.776 Y114.297 E8.35471
G1 X108.371 Y115.161 E8.55056
G1 X106.891 Y115.888 E8.74639
G1 X105.343 Y116.472 E8.94290
G1 X103.752 Y116.905 E9.13874
G1 X102.127 Y117.184 E9.33458
G1 X100.460 Y117.309 E9.53307
G1 X98.834 Y117.275 E9.72626
G1 X97.190 Y117.085 E9.92276
G1 X95.578 Y116.740 E10.11861
G1 X93.979 Y116.233 E10.31777
G1 X92.482 Y115.597 E10.51094
G1 X91.009 Y114.796 E10.71012
G1 X89.642 Y113.874 E10.90595
G1 X88.243 Y112.707 E11.12237
G1 X87.205 Y111.666 E11.29692
G1 X86.132 Y110.369 E11.49675
G1 X85.217 Y109.018 E11.69059
G1 X84.346 Y107.396 E11.90925
G1 X83.642 Y105.656 E12.13224
G1 X83.280 Y104.519 E12.27396
G1 X82.976 Y103.167 E12.43853
G1 X82.732 Y101.361 E12.65494
G1 X82.681 Y99.864 E12.83282
G1 X82.787 Y98.039 E13.04990
G1 X83.050 Y96.412 E13.24574
G1 X83.475 Y94.789 E13.44490
G1 X84.035 Y93.262 E13.63808
G1 X84.760 Y91.750 E13.83725
G1 X85.612 Y90.338 E14.03309
G1 X86.598 Y89.009 E14.22959
G1 X87.658 Y87.833 E14.41764
G1 F9600
G1 X88.918 Y86.671 E13.60335
G1 F9600
G1 X89.944 Y85.896 E12.99264
G1 E12.91764 F4800.00000
G92 E0
G1 X88.188 Y88.311 F12000.000
G1 E1.50000 F4800.00000
G1 F1680.3
G1 X89.375 Y87.219 E1.69161
G1 X90.642 Y86.263 E1.87999
G1 X91.988 Y85.435 E2.06776
G1 X93.422 Y84.733 E2.25738
G1 X94.887 Y84.181 E2.44330
G1 X96.428 Y83.763 E2.63292
G1 X97.988 Y83.496 E2.82086
G1 X99.672 Y83.378 E3.02139
G1 X101.144 Y83.413 E3.19621
G1 X102.719 Y83.597 E3.38459
G1 X104.250 Y83.925 E3.57051
G1 X105.792 Y84.414 E3.76259
G1 X107.213 Y85.019 E3.94604
G1 X108.625 Y85.785 E4.13690
G1 X109.936 Y86.669 E4.32466
G1 X111.278 Y87.788 E4.53214
G1 X112.291 Y88.804 E4.70262
G1 X113.389 Y90.151 E4.90892
G1 X114.374 Y91.669 E5.12385
G1 X114.928 Y92.686 E5.26145
G1 X115.469 Y93.926 E5.42206
G1 X116.025 Y95.587 E5.63015
G1 X116.368 Y97.115 E5.81607
G1 X116.569 Y98.709 E6.00692
G1 X116.615 Y100.128 E6.17555
G1 X116.512 Y101.862 E6.38180
G1 X116.259 Y103.422 E6.56957
G1 X115.851 Y104.977 E6.76042
G1 X115.313 Y106.441 E6.94572
G1 X114.621 Y107.885 E7.13596
G1 X113.804 Y109.239 E7.32372
G1 X112.859 Y110.513 E7.51211
G1 X111.814 Y111.672 E7.69741
G1 X110.634 Y112.755 E7.88765
G1 X109.372 Y113.708 E8.07542
G1 X108.026 Y114.536 E8.26319
G1 X106.606 Y115.233 E8.45095
G1 X105.127 Y115.791 E8.63872
G1 X103.597 Y116.208 E8.82711
G1 X102.039 Y116.476 E9.01488
G1 X100.447 Y116.595 E9.20449
G1 X98.881 Y116.563 E9.39042
G1 X97.306 Y116.380 E9.57880
G1 X95.765 Y116.050 E9.76595
G1 X94.233 Y115.566 E9.95680
G1 X92.797 Y114.955 E10.14210
G1 X91.389 Y114.192 E10.33234
G1 X90.073 Y113.305 E10.52072
G1 X88.739 Y112.193 E10.72697
G1 X87.736 Y111.189 E10.89561
G1 X86.711 Y109.951 E11.08646
G1 X85.832 Y108.656 E11.27237
G1 X85.001 Y107.113 E11.48052
G1 X84.321 Y105.436 E11.69545
G1 X83.969 Y104.332 E11.83305
G1 X83.673 Y103.012 E11.99366
G1 X83.443 Y101.291 E12.19990
G1 X83.395 Y99.846 E12.37162
G1 X83.497 Y98.112 E12.57786
G1 X83.751 Y96.547 E12.76625
G1 X84.158 Y94.997 E12.95649
G1 X84.696 Y93.533 E13.14178
G1 X85.391 Y92.084 E13.33264
G1 X86.209 Y90.731 E13.52041
G1 X87.151 Y89.461 E13.70818
G1 X88.148 Y88.356 E13.88497
G1 F9600
G1 X89.375 Y87.219 E13.09026
G1 F9600
G1 X90.435 Y86.420 E12.45997
G1 E12.38497 F4800.00000
G92 E0
G1 X88.678 Y88.833 F12000.000
G1 E1.50000 F4800.00000
G1 F1680.3
G1 X89.834 Y87.766 E1.68686
G1 X91.042 Y86.855 E1.86655
G1 X92.331 Y86.062 E2.04625
G1 X93.702 Y85.390 E2.22764
G1 X95.109 Y84.860 E2.40621
G1 X96.578 Y84.461 E2.58704
G1 X98.072 Y84.206 E2.76706
G1 X99.674 Y84.092 E2.95772
G1 X101.091 Y84.125 E3.12611
G1 X102.594 Y84.300 E3.30581
G1 X104.064 Y84.615 E3.48438
G1 X105.534 Y85.080 E3.66746
G1 X106.900 Y85.661 E3.84377
G1 X108.247 Y86.391 E4.02573
G1 X109.506 Y87.239 E4.20599
G1 X110.778 Y88.298 E4.40261
G1 X111.756 Y89.278 E4.56704
G1 X112.799 Y90.553 E4.76267
G1 X113.638 Y91.812 E4.94233
G1 X114.279 Y92.984 E5.10097
G1 X114.814 Y94.209 E5.25975
G1 X115.339 Y95.784 E5.45693
G1 X115.667 Y97.252 E5.63550
G1 X115.858 Y98.772 E5.81746
G1 X115.901 Y100.141 E5.98020
G1 X115.802 Y101.789 E6.17625
G1 X115.559 Y103.283 E6.35595
G1 X115.170 Y104.764 E6.53790
G1 X114.654 Y106.167 E6.71534
G1 X113.991 Y107.548 E6.89730
G1 X113.209 Y108.843 E7.07699
G1 X112.305 Y110.062 E7.25726
G1 X111.305 Y111.172 E7.43469
G1 X110.179 Y112.205 E7.61609
G1 X108.968 Y113.119 E7.79635
G1 X107.679 Y113.912 E7.97605
G1 X106.321 Y114.578 E8.15574
G1 X104.905 Y115.112 E8.33544
G1 X103.445 Y115.510 E8.51513
G1 X101.954 Y115.766 E8.69483
G1 X100.431 Y115.881 E8.87622
G1 X98.928 Y115.850 E9.05479
G1 X97.425 Y115.676 E9.23449
G1 X95.945 Y115.359 E9.41419
G1 X94.485 Y114.897 E9.59614
G1 X93.109 Y114.313 E9.77358
G1 X91.763 Y113.583 E9.95554
G1 X90.508 Y112.738 E10.13523
G1 X89.238 Y111.683 E10.33129
G1 X88.269 Y110.714 E10.49403
G1 X87.291 Y109.534 E10.67598
G1 X86.446 Y108.291 E10.85455
G1 X85.656 Y106.829 E11.05188
G1 X85.000 Y105.216 E11.25873
G1 X84.658 Y104.144 E11.39236
G1 X84.370 Y102.858 E11.54888
G1 X84.154 Y101.221 E11.74493
G1 X84.109 Y99.833 E11.90993
G1 X84.208 Y98.185 E12.10598
G1 X84.451 Y96.691 E12.28568
G1 X84.840 Y95.210 E12.46764
G1 X85.357 Y93.803 E12.64564
G1 X86.018 Y92.426 E12.82703
G1 X86.803 Y91.127 E13.00729
G1 X87.705 Y89.912 E13.18699
G1 X88.637 Y88.878 E13.35237
G1 F9600
G1 X89.834 Y87.766 E12.57666
G1 F9600
G1 X90.925 Y86.943 E11.92737
G1 E11.85237 F4800.00000
G92 E0
G1 X91.640 Y91.686 F12000.000
G1 E1.50000 F4800.00000
G1 F1680.3
G1 X92.466 Y90.929 E1.63319
G1 X93.362 Y90.253 E1.76639
G1 X94.317 Y89.666 E1.89958
G1 X95.324 Y89.172 E2.03277
G1 X96.373 Y88.776 E2.16597
G1 X97.455 Y88.481 E2.29916
G1 X98.560 Y88.291 E2.43235
G1 X99.679 Y88.207 E2.56555
G1 X100.800 Y88.229 E2.69874
G1 X101.914 Y88.358 E2.83193
G1 X103.011 Y88.592 E2.96513
G1 X104.080 Y88.929 E3.09832
G1 X105.113 Y89.367 E3.23151
G1 X106.099 Y89.901 E3.36471
G1 X107.031 Y90.526 E3.49790
G1 X107.898 Y91.236 E3.63109
G1 X108.694 Y92.026 E3.76429
G1 X109.412 Y92.888 E3.89748
G1 X110.044 Y93.814 E4.03067
G1 X110.585 Y94.797 E4.16387
G1 X111.031 Y95.826 E4.29706
G1 X111.376 Y96.893 E4.43025
G1 X111.619 Y97.988 E4.56345
G1 X111.756 Y99.101 E4.69664
G1 X111.787 Y100.222 E4.82983
G1 X111.712 Y101.341 E4.96302
G1 X111.530 Y102.447 E5.09622
G1 X111.244 Y103.532 E5.22941
G1 X110.856 Y104.584 E5.36260
G1 X110.370 Y105.595 E5.49580
G1 X109.790 Y106.555 E5.62899
G1 X109.121 Y107.455 E5.76218
G1 X108.370 Y108.288 E5.89538
G1 X107.543 Y109.045 E6.02857
G1 X106.648 Y109.721 E6.16176
G1 X105.693 Y110.308 E6.29496
G1 X104.686 Y110.802 E6.42815
G1 X103.637 Y111.198 E6.56134
G1 X102.554 Y111.493 E6.69454
G1 X101.449 Y111.683 E6.82773
G1 X100.331 Y111.767 E6.96092
G1 X99.210 Y111.745 E7.09412
G1 X98.096 Y111.616 E7.22731
G1 X96.999 Y111.382 E7.36050
G1 X95.929 Y111.045 E7.49370
G1 X94.897 Y110.607 E7.62689
G1 X93.910 Y110.073 E7.76008
G1 X92.979 Y109.448 E7.89328
G1 X92.112 Y108.738 E8.02647
G1 X91.315 Y107.948 E8.15966
G1 X90.598 Y107.086 E8.29286
G1 X89.966 Y106.160 E8.42605
G1 X89.425 Y105.177 E8.55924
G1 X88.979 Y104.148 E8.69244
G1 X88.634 Y103.081 E8.82563
G1 X88.391 Y101.986 E8.95882
G1 X88.253 Y100.873 E9.09202
G1 X88.222 Y99.752 E9.22521
G1 X88.298 Y98.633 E9.35840
G1 X88.480 Y97.527 E9.49160
G1 X88.766 Y96.442 E9.62479
G1 X89.154 Y95.390 E9.75798
G1 X89.640 Y94.379 E9.89118
G1 X90.220 Y93.419 E10.02437
G1 X90.888 Y92.519 E10.15756
G1 X91.599 Y91.731 E10.28363
G1 F9600
G1 X92.466 Y90.929 E9.72255
G1 F9600
G1 X93.362 Y90.253 E9.18984
G1 F9600
G1 X93.956 Y89.888 E8.85863
G1 E8.78363 F4800.00000
G92 E0
G1 X90.110 Y105.978 F12000.000
G1 E1.50000 F4800.00000
G1 F1655.89
G1 X94.024 Y109.891 E2.16699
G1 F9600
G1 X91.903 Y107.770 E0.74199
G1 E0.66699 F4800.00000
G92 E0
G1 X95.999 Y110.841 F12000.000
G1 E1.50000 F4800.00000
G1 F1655.89
G1 X89.759 Y104.602 E2.56345
G1 X89.481 Y103.959 E2.64788
G1 X89.164 Y102.982 E2.77159
G1 X97.004 Y110.822 E4.10775
G1 X97.136 Y110.863 E4.12435
G1 X98.309 Y111.102 E4.26860
G1 X88.894 Y101.686 E5.87326
G1 X88.788 Y100.833 E5.97690
G1 X88.780 Y100.548 E6.01122
G1 X99.446 Y111.214 E7.82900
G1 X100.316 Y111.231 E7.93390
G1 X100.476 Y111.219 E7.95323
G1 X88.775 Y99.518 E9.94747
G1 X88.851 Y98.570 E10.06216
G1 X101.425 Y111.144 E12.20520
G1 X102.300 Y110.993 E12.31212
G1 X88.996 Y97.689 E14.57954
G1 X89.206 Y96.874 E14.68095
G1 X103.116 Y110.785 E17.05176
G1 X103.471 Y110.688 E17.09613
G1 X103.887 Y110.531 E17.14971
G1 X89.461 Y96.105 E19.60846
G1 X89.647 Y95.599 E19.67341
G1 X89.755 Y95.374 E19.70346
G1 X104.619 Y110.238 E22.23678
G1 X105.307 Y109.901 E22.32907
G1 X90.088 Y94.682 E24.92284
G1 X90.471 Y94.040 E25.01295
G1 X105.951 Y109.521 E27.65139
G1 X106.346 Y109.278 E27.70720
G1 X106.567 Y109.111 E27.74057
G1 X90.882 Y93.426 E30.41384
G1 X91.320 Y92.840 E30.50208
G1 X107.151 Y108.670 E33.20016
G1 X107.690 Y108.185 E33.28761
G1 X91.806 Y92.301 E35.99472
G1 X92.020 Y92.064 E36.03320
G1 X92.320 Y91.789 E36.08216
G1 X108.203 Y107.673 E38.78927
G1 X108.689 Y107.134 E38.87672
G1 X92.859 Y91.304 E41.57481
G1 X93.443 Y90.863 E41.66299
G1 X109.128 Y106.548 E44.33626
G1 X109.345 Y106.256 E44.38010
G1 X109.539 Y105.934 E44.42538
G1 X94.058 Y90.454 E47.06383
G1 X94.703 Y90.073 E47.15401
G1 X109.921 Y105.292 E49.74779
G1 X110.254 Y104.600 E49.84033
G1 X95.390 Y89.736 E52.37366
G1 X96.122 Y89.443 E52.46867
G1 X110.549 Y103.869 E54.92742
G1 X110.732 Y103.371 E54.99148
G1 X110.804 Y103.100 E55.02524
G1 X96.893 Y89.189 E57.39606
G1 X97.710 Y88.981 E57.49762
G1 X111.014 Y102.285 E59.76505
G1 X111.158 Y101.404 E59.87256
G1 X98.584 Y88.830 E62.01560
G1 X99.534 Y88.755 E62.13036
G1 X111.235 Y100.456 E64.12462
G1 X111.251 Y100.211 E64.15418
G1 X111.229 Y99.426 E64.24886
G1 X100.564 Y88.760 E66.06667
G1 X100.764 Y88.764 E66.09079
G1 X101.701 Y88.872 E66.20447
G1 X111.116 Y98.288 E67.80915
G1 X111.090 Y98.079 E67.83453
G1 X110.845 Y96.992 E67.96879
G1 X103.005 Y89.152 E69.30500
G1 X103.895 Y89.433 E69.41742
G1 X104.616 Y89.738 E69.51184
G1 X110.854 Y95.976 E70.57493
G1 F9600
G1 X108.733 Y93.854 E69.14993
G1 E69.07493 F4800.00000
G92 E0
G1 X109.899 Y93.996 F12000.000
G1 E1.50000 F4800.00000
G1 F1655.89
G1 X105.986 Y90.083 E2.16705
;M104 S220 ; set temperature
;M140 S85 ; set bed temperature
G1 Z0.600 F12000.000
G1 E0.66705 F4800.00000
G92 E0
G1 X106.506 Y89.121 F12000.000
G1 E1.50000 F4800.00000

G1 F3600
G1 X107.555 Y89.819 E1.56255
G1 X108.487 Y90.583 E1.62237
G1 X109.343 Y91.432 E1.68219
G1 X110.114 Y92.358 E1.74201
G1 X110.793 Y93.354 E1.80183
G1 X111.375 Y94.409 E1.86165
G1 X111.854 Y95.515 E1.92146
G1 X112.225 Y96.662 E1.98128
G1 X112.486 Y97.838 E2.04110
G1 X112.634 Y99.035 E2.10092
G1 X112.667 Y100.239 E2.16074
G1 X112.586 Y101.442 E2.22055
G1 X112.390 Y102.631 E2.28037
G1 X112.083 Y103.796 E2.34019
G1 X111.666 Y104.927 E2.40001
G1 X111.144 Y106.013 E2.45983
G1 X110.520 Y107.045 E2.51965
G1 X109.802 Y108.013 E2.57946
G1 X108.995 Y108.908 E2.63928
G1 X108.106 Y109.722 E2.69910
G1 X107.144 Y110.448 E2.75892
G1 X106.117 Y111.079 E2.81874
G1 X105.035 Y111.610 E2.87855
G1 X103.908 Y112.035 E2.93837
G1 X102.745 Y112.352 E2.99819
G1 X101.557 Y112.556 E3.05801
G1 X100.355 Y112.647 E3.11783
G1 X99.150 Y112.623 E3.17765
G1 X97.953 Y112.484 E3.23746
G1 X96.774 Y112.233 E3.29728
G1 X95.625 Y111.870 E3.35710
G1 X94.515 Y111.400 E3.41692
G1 X93.455 Y110.827 E3.47674
G1 X92.455 Y110.155 E3.53655
G1 X91.522 Y109.391 E3.59637
G1 X90.667 Y108.542 E3.65619
G1 X89.896 Y107.616 E3.71601
G1 X89.216 Y106.620 E3.77583
G1 X88.635 Y105.565 E3.83564
G1 X88.156 Y104.459 E3.89546
G1 X87.784 Y103.312 E3.95528
G1 X87.524 Y102.136 E4.01510
G1 X87.376 Y100.939 E4.07492
G1 X87.343 Y99.735 E4.13474
G1 X87.424 Y98.532 E4.19455
G1 X87.619 Y97.343 E4.25437
G1 X87.927 Y96.178 E4.31419
G1 X88.343 Y95.047 E4.37401
G1 X88.866 Y93.961 E4.43383
G1 X89.489 Y92.929 E4.49365
G1 X90.208 Y91.961 E4.55346
G1 X91.015 Y91.066 E4.61328
G1 X91.904 Y90.252 E4.67310
G1 X92.866 Y89.526 E4.73292
G1 X93.892 Y88.895 E4.79274
G1 X94.974 Y88.364 E4.85255
G1 X96.102 Y87.939 E4.91237
G1 X97.267 Y87.622 E4.97231
G1 X98.452 Y87.418 E5.03197
G1 X99.654 Y87.327 E5.09183
G1 X100.859 Y87.351 E5.15165
G1 X102.057 Y87.490 E5.21146
G1 X103.235 Y87.741 E5.27128
G1 X104.385 Y88.104 E5.33110
G1 X105.494 Y88.574 E5.39092
G1 X106.453 Y89.093 E5.44501

G1 F9600
G1 X107.555 Y89.819 E4.81796
G1 F9600
G1 X108.487 Y90.583 E4.24548
G1 F9600
G1 X108.824 Y90.917 E4.02001
G1 E3.94501 F4800.00000
G92 E0
G1 X101.813 Y97.055 F12000.000
G1 E1.50000 F4800.00000
G1 F6721.19
G1 X102.096 Y97.249 E1.51020
G1 X102.358 Y97.471 E1.52040
G1 X102.597 Y97.718 E1.53059
G1 X102.810 Y97.987 E1.54079
G1 X102.995 Y98.277 E1.55099
G1 X103.151 Y98.583 E1.56119
G1 X103.275 Y98.903 E1.57138
G1 X103.367 Y99.234 E1.58158
G1 X103.425 Y99.572 E1.59178
G1 X103.449 Y99.915 E1.60198
G1 X103.439 Y100.258 E1.61218
G1 X103.395 Y100.599 E1.62237
G1 X103.317 Y100.934 E1.63257
G1 X103.207 Y101.259 E1.64277
G1 X103.064 Y101.571 E1.65297
G1 X102.891 Y101.868 E1.66316
G1 X102.690 Y102.146 E1.67336
G1 X102.461 Y102.403 E1.68356
G1 X102.209 Y102.635 E1.69376
G1 X101.934 Y102.841 E1.70396
G1 X101.640 Y103.019 E1.71415
G1 X101.330 Y103.167 E1.72435
G1 X101.007 Y103.283 E1.73455
G1 X100.674 Y103.367 E1.74475
G1 X100.334 Y103.416 E1.75494
G1 X99.991 Y103.432 E1.76514
G1 X99.648 Y103.414 E1.77534
G1 X99.308 Y103.361 E1.78554
G1 X98.976 Y103.275 E1.79574
G1 X98.654 Y103.156 E1.80593
G1 X98.345 Y103.006 E1.81613
G1 X98.053 Y102.826 E1.82633
G1 X97.780 Y102.617 E1.83653
G1 X97.529 Y102.383 E1.84672
G1 X97.303 Y102.124 E1.85692
G1 X97.103 Y101.844 E1.86712
G1 X96.933 Y101.546 E1.87732
G1 X96.793 Y101.233 E1.88752
G1 X96.685 Y100.907 E1.89771
G1 X96.610 Y100.571 E1.90791
G1 X96.568 Y100.231 E1.91811
G1 X96.561 Y99.887 E1.92831
G1 X96.588 Y99.545 E1.93850
G1 X96.649 Y99.207 E1.94870
G1 X96.743 Y98.876 E1.95890
G1 X96.870 Y98.557 E1.96910
G1 X97.028 Y98.252 E1.97930
G1 X97.216 Y97.965 E1.98949
G1 X97.431 Y97.697 E1.99969
G1 X97.672 Y97.452 E2.00989
G1 X97.936 Y97.232 E2.02009
G1 X98.220 Y97.040 E2.03028
G1 X98.523 Y96.877 E2.04048
G1 X98.840 Y96.745 E2.05068
G1 X99.168 Y96.645 E2.06088
G1 X99.505 Y96.578 E2.07108
G1 X99.745 Y96.555 E2.07821
G1 X100.188 Y96.547 E2.09139
G1 X100.532 Y96.582 E2.10166
G1 X100.869 Y96.652 E2.11186
G1 X101.196 Y96.754 E2.12205
G1 X101.512 Y96.889 E2.13225
G1 X101.761 Y97.026 E2.14067
G1 F9600
G1 X102.096 Y97.249 E1.94915
G1 F9600
G1 X102.358 Y97.471 E1.78600
G1 F9600
G1 X102.597 Y97.718 E1.62286
G1 F9600
