; generated by Slic3r 1.34.0-prusa3d on 2017-06-09 at 10:01:19

; external perimeters extrusion width = 0.40mm
; perimeters extrusion width = 0.67mm
; infill extrusion width = 0.67mm
; solid infill extrusion width = 0.67mm
; top infill extrusion width = 0.67mm
; support material extrusion width = 0.40mm

M107
G92 E0
; M109 S160 ; wait for extruder temp to be reached
M190 S55 ; set and wait for bed temp to be reached
G28 ; home all
; G29 ; auto z
; G1 Z15 F5000 ; lift nozzle
M109 S205 ; wait for extruder temp to be reached
; M900 K75 ; LIN_ADVANCE K PLA
; M900 K35 ; LIN_ADVANCE K ABS
G21 ; set units to millimeters
G90 ; use absolute coordinates
M82 ; use absolute distances for extrusion

M114

G92 E0
G1 E-1.50000 F4800.00000
G92 E0
G1 Z0.400 F12000.000
G1 X86.707 Y86.050 F12000.000
G1 E1.50000 F4800.00000
G1 F1680.3
G1 X87.579 Y85.463 E1.63233
G1 X88.553 Y85.065 E1.76465
G1 X89.587 Y84.874 E1.89698
G1 X110.006 Y84.858 E4.46677
G1 X110.914 Y84.939 E4.58155
G1 X111.799 Y85.182 E4.69703
G1 X112.626 Y85.579 E4.81251
G1 X113.370 Y86.116 E4.92799
G1 X114.007 Y86.777 E5.04347
G1 X114.516 Y87.540 E5.15895
G1 X114.881 Y88.382 E5.27443
G1 X115.091 Y89.275 E5.38991
G1 X115.137 Y110.230 E8.02714
G1 X115.038 Y111.029 E8.12857
G1 X114.816 Y111.804 E8.23000
G1 X114.475 Y112.534 E8.33143
G1 X114.024 Y113.202 E8.43286
G1 X113.241 Y113.993 E8.57289
G1 X112.301 Y114.599 E8.71363
G1 X111.258 Y114.986 E8.85367
G1 X110.156 Y115.140 E8.99371
G1 X89.754 Y115.137 E11.56143
G1 X88.960 Y115.036 E11.66215
G1 X88.191 Y114.814 E11.76288
G1 X87.466 Y114.475 E11.86360
G1 X86.798 Y114.024 E11.96503
G1 X86.007 Y113.241 E12.10507
G1 X85.401 Y112.301 E12.24581
G1 X85.014 Y111.258 E12.38585
G1 X84.860 Y110.156 E12.52589
G1 X84.863 Y89.754 E15.09360
G1 X84.964 Y88.960 E15.19433
G1 X85.186 Y88.191 E15.29505
G1 X85.525 Y87.466 E15.39578
G1 X85.976 Y86.798 E15.49721
G1 X86.665 Y86.093 E15.62128
G1 F9600
G1 X87.579 Y85.463 E15.09392
G1 F9600
G1 X88.553 Y85.065 E14.59450
G1 F9600
G1 X89.377 Y84.913 E14.19628
G1 E14.12128 F4800.00000
G92 E0
G1 X87.171 Y86.600 F12000.000
G1 E1.50000 F4800.00000
G1 F1680.3
G1 X87.964 Y86.068 E1.62021
G1 X88.804 Y85.736 E1.73386
G1 X89.694 Y85.582 E1.84751
G1 X110.005 Y85.572 E4.40381
G1 X110.801 Y85.645 E4.50443
G1 X111.567 Y85.858 E4.60441
G1 X112.286 Y86.207 E4.70503
G1 X112.931 Y86.680 E4.80566
G1 X113.480 Y87.261 E4.90628
G1 X113.916 Y87.932 E5.00691
G1 X114.222 Y88.664 E5.10688
G1 X114.393 Y89.445 E5.20751
G1 X114.425 Y110.182 E7.81730
G1 X114.338 Y110.888 E7.90684
G1 X114.140 Y111.571 E7.99638
G1 X113.835 Y112.214 E8.08592
G1 X113.428 Y112.804 E8.17612
G1 X112.751 Y113.470 E8.29563
G1 X111.943 Y113.979 E8.41578
G1 X111.050 Y114.302 E8.53529
G1 X110.104 Y114.427 E8.65545
G1 X89.808 Y114.424 E11.20980
G1 X89.102 Y114.336 E11.29934
G1 X88.424 Y114.138 E11.38823
G1 X87.781 Y113.832 E11.47778
G1 X87.196 Y113.428 E11.56732
G1 X86.530 Y112.751 E11.68683
G1 X86.021 Y111.943 E11.80698
G1 X85.698 Y111.050 E11.92649
G1 X85.573 Y110.104 E12.04665
G1 X85.576 Y89.808 E14.60100
G1 X85.664 Y89.102 E14.69054
G1 X85.862 Y88.424 E14.77943
G1 X86.168 Y87.781 E14.86898
G1 X86.572 Y87.196 E14.95852
G1 X87.128 Y86.642 E15.05727
G1 F9600
G1 X87.964 Y86.068 E14.57556
G1 F9600
G1 X88.804 Y85.736 E14.14662
G1 F9600
G1 X89.694 Y85.582 E13.71768
G1 F9600
G1 X89.873 Y85.582 E13.63227
G1 E13.55727 F4800.00000
G92 E0
G1 X87.702 Y87.082 F12000.000
G1 E1.50000 F4800.00000
G1 F1680.3
G1 X88.336 Y86.679 E1.59452
G1 X89.043 Y86.411 E1.68963
G1 X89.784 Y86.292 E1.78414
G1 X110.005 Y86.286 E4.32898
G1 X110.677 Y86.348 E4.41395
G1 X111.331 Y86.533 E4.49952
G1 X111.937 Y86.831 E4.58450
G1 X112.482 Y87.237 E4.67006
G1 X112.944 Y87.736 E4.75563
G1 X113.306 Y88.306 E4.84061
G1 X113.558 Y88.933 E4.92558
G1 X113.692 Y89.599 E5.01115
G1 X113.712 Y110.138 E7.59605
G1 X113.638 Y110.747 E7.67326
G1 X113.464 Y111.340 E7.75107
G1 X113.196 Y111.892 E7.82828
G1 X112.838 Y112.396 E7.90609
G1 X112.268 Y112.941 E8.00537
G1 X111.595 Y113.354 E8.10466
G1 X110.851 Y113.615 E8.20394
G1 X110.068 Y113.714 E8.30322
G1 X89.857 Y113.711 E10.84687
G1 X89.248 Y113.637 E10.92409
G1 X88.660 Y113.464 E11.00130
G1 X88.108 Y113.196 E11.07851
G1 X87.604 Y112.838 E11.15632
G1 X87.059 Y112.268 E11.25560
G1 X86.646 Y111.595 E11.35488
G1 X86.385 Y110.851 E11.45417
G1 X86.286 Y110.068 E11.55345
G1 X86.289 Y89.857 E14.09710
G1 X86.363 Y89.248 E14.17432
G1 X86.536 Y88.660 E14.25153
G1 X86.804 Y88.108 E14.32874
G1 X87.162 Y87.604 E14.40655
G1 X87.659 Y87.124 E14.49351
G1 F9600
G1 X88.336 Y86.679 E14.10883
G1 F9600
G1 X89.043 Y86.411 E13.74986
G1 F9600
G1 X89.784 Y86.292 E13.39314
G1 F9600
G1 X90.468 Y86.292 E13.06851
G1 E12.99351 F4800.00000
G92 E0
G1 X90.400 Y90.400 F12000.000
G1 E1.50000 F4800.00000
G1 F1680.3
G1 X109.600 Y90.400 E3.91640
G1 X109.600 Y109.600 E6.33280
G1 X90.400 Y109.600 E8.74920
G1 X90.400 Y90.460 E11.15804
G1 F9600
G1 X93.400 Y90.451 E9.73304
G1 E9.65804 F4800.00000
G92 E0
G1 X90.614 Y107.929 F12000.000
G1 E1.50000 F4800.00000
G1 F1666.17
G1 X91.749 Y109.064 E1.70372
G1 X92.768 Y109.064 E1.83299
G1 X90.936 Y107.232 E2.16185
G1 X90.936 Y106.214 E2.29113
G1 X93.786 Y109.064 E2.80281
G1 X94.805 Y109.064 E2.93208
G1 X90.936 Y105.195 E3.62658
G1 X90.936 Y104.177 E3.75585
G1 X95.823 Y109.064 E4.63318
G1 X96.842 Y109.064 E4.76245
G1 X90.936 Y103.158 E5.82259
G1 X90.936 Y102.140 E5.95187
G1 X97.860 Y109.064 E7.19483
G1 X98.879 Y109.064 E7.32410
G1 X90.936 Y101.121 E8.74989
G1 X90.936 Y100.102 E8.87916
G1 X99.898 Y109.064 E10.48777
G1 X100.916 Y109.064 E10.61704
G1 X90.936 Y99.084 E12.40847
G1 X90.936 Y98.065 E12.53775
G1 X101.935 Y109.064 E14.51199
G1 X102.953 Y109.064 E14.64127
G1 X90.936 Y97.047 E16.79834
G1 X90.936 Y96.028 E16.92761
G1 X103.972 Y109.064 E19.26750
G1 X104.990 Y109.064 E19.39678
G1 X90.936 Y95.010 E21.91949
G1 X90.936 Y93.991 E22.04876
G1 X106.009 Y109.064 E24.75430
G1 X107.027 Y109.064 E24.88357
G1 X90.936 Y92.973 E27.77193
G1 X90.936 Y91.954 E27.90120
G1 X108.046 Y109.064 E30.97238
G1 X109.064 Y109.064 E31.10165
G1 X90.936 Y90.936 E34.35565
G1 X91.954 Y90.936 E34.48492
G1 X109.064 Y108.046 E37.55612
G1 X109.064 Y107.027 E37.68539
G1 X92.973 Y90.936 E40.57377
G1 X93.991 Y90.936 E40.70304
G1 X109.064 Y106.009 E43.40860
G1 X109.064 Y104.990 E43.53787
G1 X95.010 Y90.936 E46.06061
G1 X96.028 Y90.936 E46.18988
G1 X109.064 Y103.972 E48.52979
G1 X109.064 Y102.953 E48.65907
G1 X97.047 Y90.936 E50.81616
G1 X98.065 Y90.936 E50.94543
G1 X109.064 Y101.935 E52.91970
G1 X109.064 Y100.916 E53.04898
G1 X99.084 Y90.936 E54.84043
G1 X100.102 Y90.936 E54.96970
G1 X109.064 Y99.898 E56.57833
G1 X109.064 Y98.879 E56.70760
G1 X101.121 Y90.936 E58.13341
G1 X102.139 Y90.936 E58.26268
G1 X109.064 Y97.861 E59.50567
G1 X109.064 Y96.842 E59.63494
G1 X103.158 Y90.936 E60.69511
G1 X104.177 Y90.936 E60.82438
G1 X109.064 Y95.823 E61.70172
G1 X109.064 Y94.805 E61.83100
G1 X105.195 Y90.936 E62.52552
G1 X106.214 Y90.936 E62.65479
G1 X109.064 Y93.786 E63.16649
G1 X109.064 Y92.768 E63.29577
G1 X107.232 Y90.936 E63.62464
G1 X108.251 Y90.936 E63.75392
G1 X109.386 Y92.071 E63.95766
; M104 S200 ; set temperature
; M140 S60 ; set bed temperature
G1 F9600
G1 X108.251 Y90.936 E63.19516
G1 F9600
G1 X107.232 Y90.936 E62.71136
G1 F9600
G1 X107.498 Y91.202 E62.53266
G1 E62.45766 F4800.00000
G92 E0
G1 Z0.600 F12000.000
G1 X109.800 Y90.200 F12000.000
G1 E1.50000 F4800.00000
G1 F1471.39
G1 X109.800 Y109.800 E2.11669
G1 X90.200 Y109.800 E2.73337
G1 X90.200 Y90.200 E3.35006
G1 X109.740 Y90.200 E3.96485
G1 F9600
G1 X109.749 Y93.200 E2.53985
G1 E2.46485 F4800.00000
G92 E0
G1 X91.627 Y90.338 F12000.000
G1 E1.50000 F4800.00000
G1 F823.993
G1 X90.620 Y91.345 E1.58001
G1 X90.620 Y92.246 E1.63068
G1 X92.246 Y90.620 E1.75987
G1 X93.148 Y90.620 E1.81054
G1 X90.620 Y93.148 E2.01138
G1 X90.620 Y94.050 E2.06205
G1 X94.050 Y90.620 E2.33454
G1 X94.952 Y90.620 E2.38521
G1 X90.620 Y94.952 E2.72935
G1 X90.620 Y95.853 E2.78002
G1 X95.853 Y90.620 E3.19581
G1 X96.755 Y90.620 E3.24647
G1 X90.620 Y96.755 E3.73392
G1 X90.620 Y97.657 E3.78458
G1 X97.657 Y90.620 E4.34368
G1 X98.559 Y90.620 E4.39434
G1 X90.620 Y98.559 E5.02508
G1 X90.620 Y99.460 E5.07575
G1 X99.460 Y90.620 E5.77814
G1 X100.362 Y90.620 E5.82880
G1 X90.620 Y100.362 E6.60284
G1 X90.620 Y101.264 E6.65351
G1 X101.264 Y90.620 E7.49920
G1 X102.166 Y90.620 E7.54986
G1 X90.620 Y102.166 E8.46720
G1 X90.620 Y103.067 E8.51786
G1 X103.067 Y90.620 E9.50685
G1 X103.969 Y90.620 E9.55752
G1 X90.620 Y103.969 E10.61816
G1 X90.620 Y104.871 E10.66882
G1 X104.871 Y90.620 E11.80111
G1 X105.773 Y90.620 E11.85177
G1 X90.620 Y105.773 E13.05571
G1 X90.620 Y106.674 E13.10637
G1 X106.674 Y90.620 E14.38196
G1 X107.576 Y90.620 E14.43263
G1 X90.620 Y107.576 E15.77986
G1 X90.620 Y108.478 E15.83053
G1 X108.478 Y90.620 E17.24941
G1 X109.380 Y90.620 E17.30008
G1 X90.620 Y109.380 E18.79061
G1 X91.522 Y109.380 E18.84127
G1 X109.380 Y91.522 E20.26017
G1 X109.380 Y92.424 E20.31083
G1 X92.424 Y109.380 E21.65807
G1 X93.326 Y109.380 E21.70874
G1 X109.380 Y93.326 E22.98433
G1 X109.380 Y94.227 E23.03500
G1 X94.227 Y109.380 E24.23894
G1 X95.129 Y109.380 E24.28961
G1 X109.380 Y95.129 E25.42190
G1 X109.380 Y96.031 E25.47257
G1 X96.031 Y109.380 E26.53321
G1 X96.933 Y109.380 E26.58388
G1 X109.380 Y96.933 E27.57288
G1 X109.380 Y97.834 E27.62354
G1 X97.834 Y109.380 E28.54089
G1 X98.736 Y109.380 E28.59155
G1 X109.380 Y98.736 E29.43725
G1 X109.380 Y99.638 E29.48792
G1 X99.638 Y109.380 E30.26197
G1 X100.540 Y109.380 E30.31263
G1 X109.380 Y100.540 E31.01503
G1 X109.380 Y101.441 E31.06569
G1 X101.441 Y109.380 E31.69644
G1 X102.343 Y109.380 E31.74711
G1 X109.380 Y102.343 E32.30621
G1 X109.380 Y103.245 E32.35687
G1 X103.245 Y109.380 E32.84433
G1 X104.147 Y109.380 E32.89499
G1 X109.380 Y104.147 E33.31079
G1 X109.380 Y105.048 E33.36146
G1 X105.048 Y109.380 E33.70561
G1 X105.950 Y109.380 E33.75627
G1 X109.380 Y105.950 E34.02878
G1 X109.380 Y106.852 E34.07944
G1 X106.852 Y109.380 E34.28030
G1 X107.754 Y109.380 E34.33096
G1 X109.380 Y107.754 E34.46017
G1 X109.380 Y108.655 E34.51083
G1 X108.373 Y109.662 E34.59085
M106 S224.4
G1 F9600
G1 X109.380 Y108.655 E33.91432
G1 F9600
G1 X109.380 Y107.754 E33.48599
G1 F9600
G1 X108.903 Y108.230 E33.16585
G1 E33.09085 F4800.00000
G92 E0
G1 Z0.800 F12000.000
G1 X109.800 Y109.800 F12000.000
G1 E1.50000 F4800.00000
G1 F1471.39
G1 X90.200 Y109.800 E2.11669
G1 X90.200 Y90.200 E2.73337
G1 X109.800 Y90.200 E3.35006
G1 X109.800 Y109.740 E3.96485
G1 F9600
G1 X106.800 Y109.749 E2.53985
G1 E2.46485 F4800.00000
G92 E0
G1 X109.662 Y91.627 F12000.000
G1 E1.50000 F4800.00000
G1 F823.993
G1 X108.655 Y90.620 E1.58002
G1 X107.754 Y90.620 E1.63069
G1 X109.380 Y92.246 E1.75989
G1 X109.380 Y93.148 E1.81055
G1 X106.852 Y90.620 E2.01141
G1 X105.950 Y90.620 E2.06207
G1 X109.380 Y94.050 E2.33458
G1 X109.380 Y94.952 E2.38524
G1 X105.048 Y90.620 E2.72939
G1 X104.147 Y90.620 E2.78006
G1 X109.380 Y95.853 E3.19586
G1 X109.380 Y96.755 E3.24652
G1 X103.245 Y90.620 E3.73398
G1 X102.343 Y90.620 E3.78464
G1 X109.380 Y97.657 E4.34374
G1 X109.380 Y98.559 E4.39441
G1 X101.441 Y90.620 E5.02516
G1 X100.540 Y90.620 E5.07582
G1 X109.380 Y99.460 E5.77822
G1 X109.380 Y100.362 E5.82889
G1 X99.638 Y90.620 E6.60293
G1 X98.736 Y90.620 E6.65360
G1 X109.380 Y101.264 E7.49930
G1 X109.380 Y102.166 E7.54996
G1 X97.834 Y90.620 E8.46731
G1 X96.933 Y90.620 E8.51797
G1 X109.380 Y103.067 E9.50697
G1 X109.380 Y103.969 E9.55764
G1 X96.031 Y90.620 E10.61828
G1 X95.129 Y90.620 E10.66895
G1 X109.380 Y104.871 E11.80124
G1 X109.380 Y105.773 E11.85191
G1 X94.227 Y90.620 E13.05585
G1 X93.326 Y90.620 E13.10652
G1 X109.380 Y106.674 E14.38211
G1 X109.380 Y107.576 E14.43278
G1 X92.424 Y90.620 E15.78002
G1 X91.522 Y90.620 E15.83068
G1 X109.380 Y108.478 E17.24958
G1 X109.380 Y109.380 E17.30024
G1 X90.620 Y90.620 E18.79078
G1 X90.620 Y91.522 E18.84144
G1 X108.478 Y109.380 E20.26033
G1 X107.576 Y109.380 E20.31099
G1 X90.620 Y92.424 E21.65823
G1 X90.620 Y93.326 E21.70889
G1 X106.674 Y109.380 E22.98448
G1 X105.773 Y109.380 E23.03514
G1 X90.620 Y94.227 E24.23908
G1 X90.620 Y95.129 E24.28974
G1 X104.871 Y109.380 E25.42203
G1 X103.969 Y109.380 E25.47269
G1 X90.620 Y96.031 E26.53333
G1 X90.620 Y96.933 E26.58400
G1 X103.067 Y109.380 E27.57299
G1 X102.166 Y109.380 E27.62365
G1 X90.620 Y97.834 E28.54099
G1 X90.620 Y98.736 E28.59165
G1 X101.264 Y109.380 E29.43734
G1 X100.362 Y109.380 E29.48801
G1 X90.620 Y99.638 E30.26205
G1 X90.620 Y100.540 E30.31271
G1 X99.460 Y109.380 E31.01511
G1 X98.559 Y109.380 E31.06577
G1 X90.620 Y101.441 E31.69651
G1 X90.620 Y102.343 E31.74718
G1 X97.657 Y109.380 E32.30627
G1 X96.755 Y109.380 E32.35693
G1 X90.620 Y103.245 E32.84438
G1 X90.620 Y104.147 E32.89504
G1 X95.853 Y109.380 E33.31084
G1 X94.952 Y109.380 E33.36150
G1 X90.620 Y105.048 E33.70564
G1 X90.620 Y105.950 E33.75631
G1 X94.050 Y109.380 E34.02880
G1 X93.148 Y109.380 E34.07947
G1 X90.620 Y106.852 E34.28031
G1 X90.620 Y107.754 E34.33098
G1 X92.246 Y109.380 E34.46017
G1 X91.345 Y109.380 E34.51084
G1 X90.338 Y108.373 E34.59085
M106 S255
G1 F9600
G1 X91.345 Y109.380 E33.91439
G1 F9600
G1 X92.246 Y109.380 E33.48606
G1 F9600
G1 X91.770 Y108.903 E33.16585
G1 E33.09085 F4800.00000
G92 E0
G1 Z1.000 F12000.000
G1 X90.200 Y109.800 F12000.000
G1 E1.50000 F4800.00000
G1 F900
G1 X90.200 Y90.200 E2.11669
G1 X109.800 Y90.200 E2.73337
G1 X109.800 Y109.800 E3.35006
G1 X90.260 Y109.800 E3.96485
G1 F9600
G1 X90.251 Y106.800 E2.53985
G1 E2.46485 F4800.00000
G92 E0
G1 X90.338 Y109.662 F12000.000
G1 E1.50000 F4800.00000
G1 F900
G1 X109.380 Y90.620 E2.99090
G1 X103.456 Y90.620 E3.31887
G1 X90.620 Y103.456 E4.32382
G1 X90.620 Y97.532 E4.65179
G1 X97.532 Y90.620 E5.19293
G1 X91.606 Y90.622 E5.52100
G1 X90.338 Y91.891 E5.62032
G1 F9600
G1 X91.606 Y90.622 E4.76819
G1 F9600
G1 X92.812 Y90.622 E4.19532
G1 E4.12032 F4800.00000
G92 E0
G1 X108.371 Y103.477 F12000.000
G1 E1.50000 F4800.00000
G1 F900
G1 X109.380 Y102.468 E1.57896
G1 X109.380 Y96.544 E1.90692
G1 X96.544 Y109.380 E2.91188
G1 X102.468 Y109.380 E3.23984
G1 X107.450 Y104.398 E3.62987
G1 X107.450 Y104.847 E3.65472
G1 X109.380 Y104.850 E3.76154
G1 X109.380 Y108.392 E3.95765
G1 X108.109 Y109.662 E4.05712
G1 F9600
G1 X109.380 Y108.392 E3.20368
G1 F9600
G1 X109.380 Y107.189 E2.63212
G1 E2.55712 F4800.00000
G92 E0
G1 Z1.200 F12000.000
G1 X109.800 Y109.800 F12000.000
G1 E1.50000 F4800.00000
G1 F900
G1 X90.200 Y109.800 E2.11669
G1 X90.200 Y90.200 E2.73337
G1 X109.800 Y90.200 E3.35006
G1 X109.800 Y109.740 E3.96485
G1 F9600
G1 X106.800 Y109.749 E2.53985
G1 E2.46485 F4800.00000
G92 E0
G1 X109.662 Y91.891 F12000.000
G1 E1.50000 F4800.00000
G1 F900
G1 X108.392 Y90.620 E1.59947
G1 X102.468 Y90.620 E1.92744
G1 X109.380 Y97.532 E2.46858
G1 X109.380 Y103.194 E2.78206
G1 X109.118 Y103.194 E2.79655
G1 X96.544 Y90.620 E3.78102
G1 X90.621 Y90.621 E4.10894
G1 X109.380 Y109.380 E5.57765
G1 X103.456 Y109.380 E5.90561
G1 X90.620 Y96.544 E6.91057
G1 X90.620 Y102.468 E7.23853
G1 X97.532 Y109.380 E7.77968
G1 X91.608 Y109.380 E8.10764
G1 X90.338 Y108.109 E8.20711
G1 F9600
G1 X91.608 Y109.380 E7.35367
G1 F9600
G1 X92.811 Y109.380 E6.78211
G1 E6.70711 F4800.00000
G92 E0
G1 Z1.400 F12000.000
G1 X90.200 Y109.800 F12000.000
G1 E1.50000 F4800.00000
G1 F900
G1 X90.200 Y90.200 E2.11669
G1 X109.800 Y90.200 E2.73337
G1 X109.800 Y109.800 E3.35006
G1 X90.260 Y109.800 E3.96485
G1 F9600
G1 X90.251 Y106.800 E2.53985
G1 E2.46485 F4800.00000
G92 E0
G1 X90.338 Y109.662 F12000.000
G1 E1.50000 F4800.00000
G1 F900
G1 X109.380 Y90.620 E2.99090
G1 X103.456 Y90.620 E3.31887
G1 X90.620 Y103.456 E4.32382
G1 X90.620 Y97.532 E4.65179
G1 X97.532 Y90.620 E5.19293
G1 X91.606 Y90.622 E5.52100
G1 X90.338 Y91.891 E5.62032
G1 F9600
G1 X91.606 Y90.622 E4.76819
G1 F9600
G1 X92.812 Y90.622 E4.19532
G1 E4.12032 F4800.00000
G92 E0
G1 X108.371 Y103.477 F12000.000
G1 E1.50000 F4800.00000
G1 F900
G1 X109.380 Y102.468 E1.57896
G1 X109.380 Y96.544 E1.90692
G1 X96.544 Y109.380 E2.91188
G1 X102.468 Y109.380 E3.23984
G1 X107.450 Y104.398 E3.62987
G1 X107.450 Y104.847 E3.65472
G1 X109.380 Y104.850 E3.76154
G1 X109.380 Y108.392 E3.95765
G1 X108.109 Y109.662 E4.05712
G1 F9600
G1 X109.380 Y108.392 E3.20368
G1 F9600
